src/images/svg/custom/basket-nav.svg

<svg width="48" height="48" viewBox="0 0 48 48" fill="none" xmlns="http://www.w3.org/2000/svg">
<path fill-rule="evenodd" clip-rule="evenodd" d="M39 0C43.9706 0 48 4.0294 48 9V39C48 43.9706 43.9706 48 39 48H9C4.0294 48 0 43.9706 0 39V9C0 4.0294 4.0294 0 9 0H39Z" fill="#33658A"/>
<path fill-rule="evenodd" clip-rule="evenodd" d="M19 16V20H7C6.44772 20 6 19.5523 6 19V17C6 16.4477 6.44772 16 7 16H19ZM41 20H29V16H41C41.5523 16 42 16.4477 42 17V19C42 19.5523 41.5523 20 41 20ZM23 27C20.7909 27 19 25.2091 19 23V22H8L12.7807 37.2983C12.9112 37.7157 13.2978 38 13.7352 38H34.2648C34.7022 38 35.0888 37.7157 35.2193 37.2983L40 22H29V23C29 25.2091 27.2091 27 25 27V33C25 33.5523 24.5523 34 24 34C23.4477 34 23 33.5523 23 33V27ZM18 26C17.4477 26 17 26.4477 17 27V33C17 33.5523 17.4477 34 18 34C18.5523 34 19 33.5523 19 33V27C19 26.4477 18.5523 26 18 26ZM30 26C29.4477 26 29 26.4477 29 27V33C29 33.5523 29.4477 34 30 34C30.5523 34 31 33.5523 31 33V27C31 26.4477 30.5523 26 30 26Z" fill="white"/>
<path fill-rule="evenodd" clip-rule="evenodd" d="M23 11V23H25V11H23ZM21 23C21 24.1046 21.8954 25 23 25H25C26.1046 25 27 24.1046 27 23V11C27 9.89543 26.1046 9 25 9H23C21.8954 9 21 9.89543 21 11V23Z" fill="white"/>
</svg>

<svg width="48" height="48" fill="none" xmlns="http://www.w3.org/2000/svg"><path fill-rule="evenodd" clip-rule="evenodd" d="M39 0a9 9 0 0 1 9 9v30a9 9 0 0 1-9 9H9a9 9 0 0 1-9-9V9a9 9 0 0 1 9-9h30Z" fill="#33658A"/><path fill-rule="evenodd" clip-rule="evenodd" d="M19 16v4H7a1 1 0 0 1-1-1v-2a1 1 0 0 1 1-1h12Zm22 4H29v-4h12a1 1 0 0 1 1 1v2a1 1 0 0 1-1 1Zm-18 7a4 4 0 0 1-4-4v-1H8l4.78 15.298a1 1 0 0 0 .955.702h20.53a1 1 0 0 0 .954-.702L40 22H29v1a4 4 0 0 1-4 4v6a1 1 0 1 1-2 0v-6Zm-5-1a1 1 0 0 0-1 1v6a1 1 0 1 0 2 0v-6a1 1 0 0 0-1-1Zm12 0a1 1 0 0 0-1 1v6a1 1 0 1 0 2 0v-6a1 1 0 0 0-1-1Z" fill="#fff"/><path fill-rule="evenodd" clip-rule="evenodd" d="M23 11v12h2V11h-2Zm-2 12a2 2 0 0 0 2 2h2a2 2 0 0 0 2-2V11a2 2 0 0 0-2-2h-2a2 2 0 0 0-2 2v12Z" fill="#fff"/></svg>
